X:1
T:The Sweet Maid of Glendaruel  "CCPB Sep-1995"
M:C|
L:1/8
Q:80
C:1.
S:March
K:HP
|: e2 | \
{g}A3/2B/2{GdG}c{Gdc}d | \
{gef}e3/2c/2{g}A{Gdc}d |
{gcd}c{e}A{gef}ec | \
{gcd}c{e}B{GdG}Be | \
{g}A3/2B/2{GdG}c{Gdc}d |
{gef}e3/2c/2{g}A{g}B3/4c/4 | \
{Gdc}d3/2B/2{g}G{d}B | \
{gBd}B{e}A{GAG}A ::
{gf}g | \
{fg}fe{ag}a3/2f/2 | \
{gef}e3/2c/2{g}A{gf}g |
{fg}fe{ag}ac | \
{gcd}c{e}B{GdG}B{gf}g | \
{fg}fe{ag}a3/2f/2 |
{gef}e3/2c/2{g}A{g}B3/4c/4 | \
{Gdc}d3/2B/2{g}G{d}B | \
{gBd}B{e}A{GAG}A :|
